src/next/cmd/sc_deletecomment.svg

<svg height="16" viewBox="0 0 16 16" width="16" xmlns="http://www.w3.org/2000/svg" xmlns:xlink="http://www.w3.org/1999/xlink"><radialGradient id="a" cx="7.977352" cy="8.22044" gradientTransform="matrix(2.6101946 0 0 2.6007842 -8.822441 914.98257)" gradientUnits="userSpaceOnUse" r="56"><stop offset=".0765" stop-color="#f3c300"/><stop offset=".1887" stop-color="#f7d21f"/><stop offset=".3467" stop-color="#fde446"/><stop offset=".4294" stop-color="#ffeb55"/><stop offset=".6882" stop-color="#ffeb55"/><stop offset=".7281" stop-color="#fee951"/><stop offset=".7641" stop-color="#fde446"/><stop offset=".7987" stop-color="#fadb34"/><stop offset=".8322" stop-color="#f7cf1a"/><stop offset=".8588" stop-color="#f3c300"/><stop offset=".9208" stop-color="#fbd400"/><stop offset=".9706" stop-color="#fd0"/></radialGradient><linearGradient id="b" gradientUnits="userSpaceOnUse" x1="69.982056" x2="99.040398" y1="929.22302" y2="975.71637"><stop offset="0" stop-color="#fff" stop-opacity=".462094"/><stop offset=".5" stop-color="#fff"/><stop offset="1" stop-color="#fff" stop-opacity=".350181"/></linearGradient><radialGradient id="c" cx="-32" cy="9.6" gradientTransform="matrix(3.6042052 3.6042052 -18.021027 18.021027 393.56583 880.28582)" gradientUnits="userSpaceOnUse" r="5.6"><stop offset="0" stop-color="#a50606"/><stop offset="1" stop-color="#f20909"/></radialGradient><g transform="matrix(.125 0 0 .125 0 -115.54527)"><g fill="none" stroke-linecap="round" stroke-linejoin="round"><g stroke="#000"><path d="m8.068121 932.36218h113.142619v112.73472h-113.142619z" opacity=".2" stroke-width="8.081616"/><path d="m6.62296 930.92224h116.03294v115.61466h-116.03294z" opacity=".15" stroke-width="12.432101"/><path d="m8.068121 932.36218h113.142619v112.73472h-113.142619z" opacity=".2" stroke-width="8.081616"/></g><path d="m8.068121 932.36218h113.142619v112.73472h-113.142619z" stroke="#e3ad00" stroke-width="4.040808"/></g><path d="m8.068121 932.36218h111.931879v112.00002h-111.931879z" fill="#fff"/><path d="m12.059116 936.3139h103.940894v104.0483h-103.940894z" fill="url(#a)"/><path d="m12 936.36218h104v23.99998h-104z" fill="url(#b)"/><g fill="#fff"><path d="m62.090896 1020.2523v-2.8232z" fill-opacity=".756881"/><path d="m105.8159 928.74923v-2.82322z" fill-opacity=".756881"/><path d="m61.080092 931.99154a11.191931 11.191931 0 0 0 3.096262 9.88836l10.650405 10.6504-10.650405 10.65041a11.191931 11.191931 0 0 0 0 15.82686l9.268187 9.26818a11.191931 11.191931 0 0 0 15.826858 0l10.650406-10.6504 10.650405 10.6504a11.191931 11.191931 0 0 0 11.20879 2.77359v-59.0578z" fill-opacity=".871324"/></g><path d="m118.48548 924.69703-18.563675 18.56367-18.563673-18.56367-9.268891 9.26889 18.563672 18.56367-18.563672 18.56368 9.268891 9.26889 18.563673-18.56367 18.563675 18.56367 9.26889-9.26889-18.56367-18.56368 18.56367-18.56367z" fill="url(#c)"/></g></svg>

<?xml version="1.0" encoding="UTF-8" standalone="no"?>
<svg
   xmlns:dc="http://purl.org/dc/elements/1.1/"
   xmlns:cc="http://creativecommons.org/ns#"
   xmlns:rdf="http://www.w3.org/1999/02/22-rdf-syntax-ns#"
   xmlns:svg="http://www.w3.org/2000/svg"
   xmlns="http://www.w3.org/2000/svg"
   xmlns:sodipodi="http://sodipodi.sourceforge.net/DTD/sodipodi-0.dtd"
   xmlns:inkscape="http://www.inkscape.org/namespaces/inkscape"
   height="16"
   viewBox="0 0 16 16"
   width="16"
   version="1.1"
   id="svg65"
   sodipodi:docname="sc_deletecomment.svg"
   inkscape:version="0.92.4 (unknown)"
   inkscape:export-filename="/home/rizmut/Dokumen/Rizmut/Github/libreoffice-style-karasa-jaga/build/next/cmd/sc_deletecomment.png"
   inkscape:export-xdpi="96"
   inkscape:export-ydpi="96">
  <metadata
     id="metadata71">
    <rdf:RDF>
      <cc:Work
         rdf:about="">
        <dc:format>image/svg+xml</dc:format>
        <dc:type
           rdf:resource="http://purl.org/dc/dcmitype/StillImage" />
        <dc:title></dc:title>
      </cc:Work>
    </rdf:RDF>
  </metadata>
  <defs
     id="defs69" />
  <sodipodi:namedview
     pagecolor="#ffffff"
     bordercolor="#666666"
     borderopacity="1"
     objecttolerance="10"
     gridtolerance="10"
     guidetolerance="10"
     inkscape:pageopacity="0"
     inkscape:pageshadow="2"
     inkscape:window-width="640"
     inkscape:window-height="480"
     id="namedview67"
     showgrid="true"
     inkscape:zoom="14.875"
     inkscape:cx="4.8277885"
     inkscape:cy="18.37488"
     inkscape:current-layer="g91">
    <inkscape:grid
       type="xygrid"
       id="grid73" />
  </sodipodi:namedview>
  <radialGradient
     id="a"
     cx="7.9773521"
     cy="8.2204399"
     gradientTransform="matrix(2.6101946,0,0,2.6007842,-8.822441,914.98257)"
     gradientUnits="userSpaceOnUse"
     r="56">
    <stop
       offset=".0765"
       stop-color="#f3c300"
       id="stop2" />
    <stop
       offset=".1887"
       stop-color="#f7d21f"
       id="stop4" />
    <stop
       offset=".3467"
       stop-color="#fde446"
       id="stop6" />
    <stop
       offset=".4294"
       stop-color="#ffeb55"
       id="stop8" />
    <stop
       offset=".6882"
       stop-color="#ffeb55"
       id="stop10" />
    <stop
       offset=".7281"
       stop-color="#fee951"
       id="stop12" />
    <stop
       offset=".7641"
       stop-color="#fde446"
       id="stop14" />
    <stop
       offset=".7987"
       stop-color="#fadb34"
       id="stop16" />
    <stop
       offset=".8322"
       stop-color="#f7cf1a"
       id="stop18" />
    <stop
       offset=".8588"
       stop-color="#f3c300"
       id="stop20" />
    <stop
       offset=".9208"
       stop-color="#fbd400"
       id="stop22" />
    <stop
       offset=".9706"
       stop-color="#fd0"
       id="stop24" />
  </radialGradient>
  <linearGradient
     id="b"
     gradientUnits="userSpaceOnUse"
     x1="69.982056"
     x2="99.040398"
     y1="929.22302"
     y2="975.71637">
    <stop
       offset="0"
       stop-color="#fff"
       stop-opacity=".462094"
       id="stop27" />
    <stop
       offset=".5"
       stop-color="#fff"
       id="stop29" />
    <stop
       offset="1"
       stop-color="#fff"
       stop-opacity=".350181"
       id="stop31" />
  </linearGradient>
  <radialGradient
     id="c"
     cx="-32"
     cy="9.6000004"
     gradientTransform="matrix(3.6042052,3.6042052,-18.021027,18.021027,393.56583,880.28582)"
     gradientUnits="userSpaceOnUse"
     r="5.5999999">
    <stop
       offset="0"
       stop-color="#a50606"
       id="stop34" />
    <stop
       offset="1"
       stop-color="#f20909"
       id="stop36" />
  </radialGradient>
  <g
     id="g91"
     transform="scale(0.125)">
    <g
       id="g63"
       transform="translate(0,-924.36216)">
      <g
         id="g47"
         style="fill:none;stroke-linecap:round;stroke-linejoin:round">
        <path
           id="path39"
           d="M 8.068121,932.36218 H 121.21074 V 1045.0969 H 8.068121 Z"
           inkscape:connector-curvature="0"
           style="opacity:0.2;stroke:#000000;stroke-width:8.0816164" />
        <path
           id="path41"
           d="M 6.62296,930.92224 H 122.6559 V 1046.5369 H 6.62296 Z"
           inkscape:connector-curvature="0"
           style="opacity:0.15;stroke:#000000;stroke-width:12.43210125" />
        <path
           id="path43"
           d="M 8.068121,932.36218 H 121.21074 V 1045.0969 H 8.068121 Z"
           inkscape:connector-curvature="0"
           style="opacity:0.2;stroke:#000000;stroke-width:8.0816164" />
        <path
           id="path45"
           d="M 8.068121,932.36218 H 121.21074 V 1045.0969 H 8.068121 Z"
           inkscape:connector-curvature="0"
           style="stroke:#e3ad00;stroke-width:4.0408082" />
      </g>
      <path
         id="path49"
         d="M 8.068121,932.36218 H 120 V 1044.3622 H 8.068121 Z"
         inkscape:connector-curvature="0"
         style="fill:#ffffff" />
      <path
         id="path51"
         d="M 12.059116,936.3139 H 116.00001 v 104.0483 H 12.059116 Z"
         inkscape:connector-curvature="0"
         style="fill:url(#a)" />
      <path
         id="path53"
         d="m 12,936.36218 h 104 v 23.99998 H 12 Z"
         inkscape:connector-curvature="0"
         style="fill:url(#b)" />
      <path
         id="path55"
         d="m 62.090896,1020.2523 v -2.8232 z"
         inkscape:connector-curvature="0"
         style="fill:#ffffff;fill-opacity:0.756881" />
      <path
         id="path57"
         d="m 105.8159,928.74923 v -2.82322 z"
         inkscape:connector-curvature="0"
         style="fill:#ffffff;fill-opacity:0.756881" />
      <path
         id="path59"
         d="m 61.080092,931.99154 a 11.191931,11.191931 0 0 0 3.096262,9.88836 l 10.650405,10.6504 -10.650405,10.65041 a 11.191931,11.191931 0 0 0 0,15.82686 l 9.268187,9.26818 a 11.191931,11.191931 0 0 0 15.826858,0 l 10.650406,-10.6504 10.650405,10.6504 a 11.191931,11.191931 0 0 0 11.20879,2.77359 v -59.0578 z"
         inkscape:connector-curvature="0"
         style="fill:#ffffff;fill-opacity:0.87132401" />
      <path
         id="path61"
         d="m 118.48548,924.69703 -18.563675,18.56367 -18.563673,-18.56367 -9.268891,9.26889 18.563672,18.56367 -18.563672,18.56368 9.268891,9.26889 18.563673,-18.56367 18.563675,18.56367 9.26889,-9.26889 -18.56367,-18.56368 18.56367,-18.56367 z"
         inkscape:connector-curvature="0"
         style="fill:url(#c)" />
    </g>
  </g>
</svg>
